packages/tokens/icons/figureGear/size24Px.svg

<svg viewBox="0 0 26 26" fill="none" xmlns="http://www.w3.org/2000/svg" width="1em" height="1em"><path d="M5.49997 21.5V18.5741C5.49997 16.0172 6.63869 14.5 8.66012 14.5L12 14.5" stroke="currentColor" stroke-linecap="round" stroke-linejoin="round"/><path d="M13 11.5C15.2091 11.5 17 9.70914 17 7.5C17 5.29086 15.2091 3.5 13 3.5C10.7909 3.5 9 5.29086 9 7.5C9 9.70914 10.7909 11.5 13 11.5Z" stroke="currentColor" stroke-linecap="round" stroke-linejoin="round"/><path d="M21.3038 16.6774H20.9028C20.8206 16.3175 20.6766 15.9884 20.4916 15.6799L20.7692 15.4023C20.8514 15.3201 20.8514 15.1967 20.7692 15.1144L19.8952 14.2404C19.813 14.1581 19.6896 14.1581 19.6073 14.2404L19.3297 14.518C19.0213 14.3329 18.6923 14.1889 18.3324 14.1067V13.7057C18.3324 13.5925 18.2399 13.5 18.1268 13.5H16.893C16.7799 13.5 16.6873 13.5925 16.6873 13.7057V14.1067C16.3275 14.1889 15.9984 14.3329 15.69 14.518L15.4021 14.2404C15.3198 14.1581 15.1965 14.1581 15.1142 14.2404L14.2403 15.1144C14.158 15.1967 14.158 15.3201 14.2403 15.4023L14.5179 15.6799C14.3328 15.9884 14.1888 16.3175 14.1066 16.6774H13.7056C13.5925 16.6774 13.5 16.7699 13.5 16.883V18.117C13.5 18.2301 13.5925 18.3226 13.7056 18.3226H14.1066C14.1888 18.6825 14.3328 19.0116 14.5179 19.3201L14.2403 19.5977C14.158 19.6799 14.158 19.8033 14.2403 19.8856L15.1142 20.7596C15.1965 20.8419 15.3198 20.8419 15.4021 20.7596L15.6797 20.482C15.9882 20.6671 16.3172 20.8111 16.677 20.8933V21.2943C16.677 21.4075 16.7696 21.5 16.8827 21.5H18.1165C18.2296 21.5 18.3221 21.4075 18.3221 21.2943V20.8933C18.682 20.8111 19.011 20.6671 19.3195 20.482L19.5971 20.7596C19.6793 20.8419 19.8027 20.8419 19.8849 20.7596L20.7589 19.8856C20.8412 19.8033 20.8412 19.6799 20.7589 19.5977L20.4813 19.3201C20.6664 19.0116 20.8103 18.6825 20.8926 18.3226H21.2936C21.4067 18.3226 21.4992 18.2301 21.4992 18.117V16.883C21.5095 16.7699 21.4169 16.6774 21.3038 16.6774Z" stroke="currentColor" stroke-miterlimit="10"/><circle cx="17.5" cy="17.5003" r="1.83333" stroke="currentColor"/></svg>

<svg xmlns="http://www.w3.org/2000/svg" fill="none" viewBox="0 0 26 26" width="1em" height="1em"><path stroke="currentColor" stroke-linecap="round" stroke-linejoin="round" d="M5.5 21.5v-2.926c0-2.557 1.139-4.074 3.16-4.074H12m1-3a4 4 0 1 0 0-8 4 4 0 0 0 0 8Z"/><path stroke="currentColor" stroke-miterlimit="10" d="M21.304 16.677h-.401a3.406 3.406 0 0 0-.411-.997l.277-.278a.199.199 0 0 0 0-.288l-.874-.874a.199.199 0 0 0-.288 0l-.277.278a3.402 3.402 0 0 0-.998-.411v-.401a.206.206 0 0 0-.205-.206h-1.234a.206.206 0 0 0-.206.206v.4a3.42 3.42 0 0 0-.997.412l-.288-.278a.199.199 0 0 0-.288 0l-.874.874a.199.199 0 0 0 0 .288l.278.278c-.185.308-.33.637-.411.997h-.401a.206.206 0 0 0-.206.206v1.234c0 .113.092.206.206.206h.4c.083.36.227.689.412.997l-.278.278a.199.199 0 0 0 0 .288l.874.874a.199.199 0 0 0 .288 0l.278-.278c.308.185.637.33.997.411v.401c0 .113.093.206.206.206h1.233a.206.206 0 0 0 .206-.206v-.4c.36-.083.689-.227.998-.412l.277.278a.199.199 0 0 0 .288 0l.874-.874a.199.199 0 0 0 0-.288l-.278-.278c.185-.308.33-.637.412-.997h.4a.206.206 0 0 0 .206-.206v-1.234a.192.192 0 0 0-.195-.206Z"/><circle cx="17.5" cy="17.5" r="1.833" stroke="currentColor"/></svg>
